icons/glyphs/glyph-microphone.svg

<?xml version="1.0" encoding="UTF-8" standalone="no"?><svg height="16" viewBox="0 0 4.2333333 4.2333333" width="16" xmlns="http://www.w3.org/2000/svg"><sodipodi:namedview/><metadata><rdf:RDF><cc:Work><dc:format>image/svg+xml</dc:format><dc:type/><dc:title/></cc:Work></rdf:RDF></metadata><path d="m2.1135817-.00000007c-.4861444 0-.8775169.39137258-.8775169.87751682v1.26211605c0 .4861443.3913725.8775169.8775169.8775169.4861442 0 .877517-.3913726.877517-.8775169v-1.26211605c-.0000004-.48614424-.3913728-.87751682-.877517-.87751682zm-1.40128475 2.09849927v.02468c0 .6466784.45147515 1.193265 1.05164915 1.3526098v.7575444h.7925073v-.7842811c.5561543-.1872418.964583-.7106543.964583-1.3258729v-.02468h-.3180999v.041134c0 .5996468-.4883367 1.0886692-1.0879837 1.0886692-.5996473 0-1.0907261-.4890224-1.0907261-1.0886692v-.041133z" fill="#d0d0d0"/></svg>

<?xml version="1.0" encoding="UTF-8" standalone="no"?>
<!-- Created with Inkscape (http://www.inkscape.org/) -->

<svg
     xmlns:dc="http://purl.org/dc/elements/1.1/"
     xmlns:cc="http://creativecommons.org/ns#"
     xmlns:rdf="http://www.w3.org/1999/02/22-rdf-syntax-ns#"
     xmlns:svg="http://www.w3.org/2000/svg"
     xmlns="http://www.w3.org/2000/svg"
     xmlns:sodipodi="http://sodipodi.sourceforge.net/DTD/sodipodi-0.dtd"
     xmlns:inkscape="http://www.inkscape.org/namespaces/inkscape"
     width="16"
     height="16"
     viewBox="0 0 4.2333333 4.2333333"
     version="1.1"
     id="svg8"
     inkscape:version="0.92+devel (fa9b7f7a5b, 2017-07-19, custom)"
     sodipodi:docname="glyph-microphone.svg">
    <defs
         id="defs2" />
    <sodipodi:namedview
         id="base"
         pagecolor="#002466"
         bordercolor="#ffffff"
         borderopacity="0.38039216"
         inkscape:pageopacity="1"
         inkscape:pageshadow="2"
         inkscape:zoom="26.46875"
         inkscape:cx="8"
         inkscape:cy="7.9433294"
         inkscape:document-units="px"
         inkscape:current-layer="svg8"
         inkscape:document-rotation="0"
         showgrid="false"
         inkscape:showpageshadow="false"
         borderlayer="true"
         inkscape:window-width="1920"
         inkscape:window-height="1051"
         inkscape:window-x="0"
         inkscape:window-y="0"
         inkscape:window-maximized="1"
         units="px" />
    <metadata
         id="metadata5">
        <rdf:RDF>
            <cc:Work
                 rdf:about="">
                <dc:format>image/svg+xml</dc:format>
                <dc:type
                     rdf:resource="http://purl.org/dc/dcmitype/StillImage" />
                <dc:title></dc:title>
            </cc:Work>
        </rdf:RDF>
    </metadata>
    <path
         style="color:#000000;font-style:normal;font-variant:normal;font-weight:normal;font-stretch:normal;font-size:medium;line-height:normal;font-family:sans-serif;font-variant-ligatures:normal;font-variant-position:normal;font-variant-caps:normal;font-variant-numeric:normal;font-variant-alternates:normal;font-variant-east-asian:normal;font-feature-settings:normal;font-variation-settings:normal;text-indent:0;text-align:start;text-decoration:none;text-decoration-line:none;text-decoration-style:solid;text-decoration-color:#000000;letter-spacing:normal;word-spacing:normal;text-transform:none;writing-mode:lr-tb;direction:ltr;text-orientation:mixed;dominant-baseline:auto;baseline-shift:baseline;text-anchor:start;white-space:normal;shape-padding:0;clip-rule:nonzero;display:inline;overflow:visible;visibility:visible;isolation:auto;mix-blend-mode:normal;color-interpolation:sRGB;color-interpolation-filters:linearRGB;solid-color:#000000;solid-opacity:1;vector-effect:none;fill:#d0d0d0;fill-opacity:1;fill-rule:nonzero;stroke:none;stroke-width:0.79507297;stroke-linecap:butt;stroke-linejoin:miter;stroke-miterlimit:4;stroke-dasharray:none;stroke-dashoffset:0;stroke-opacity:1;color-rendering:auto;image-rendering:auto;shape-rendering:auto;text-rendering:auto;enable-background:accumulate"
         d="m 2.1135817,-6.5e-8 c -0.4861444,0 -0.8775169,0.391372575 -0.8775169,0.877516815 V 2.1396328 c 0,0.4861443 0.3913725,0.8775169 0.8775169,0.8775169 0.4861442,0 0.877517,-0.3913726 0.877517,-0.8775169 V 0.87751675 C 2.9910983,0.39137251 2.5997259,-6.5e-8 2.1135817,-6.5e-8 Z M 0.71229695,2.0984992 v 0.02468 c 0,0.6466784 0.45147515,1.193265 1.05164915,1.3526098 V 4.2333334 H 2.5564534 V 3.4490523 C 3.1126077,3.2618105 3.5210364,2.738398 3.5210364,2.1231794 v -0.02468 H 3.2029365 v 0.041134 c 0,0.5996468 -0.4883367,1.0886692 -1.0879837,1.0886692 -0.5996473,0 -1.0907261,-0.4890224 -1.0907261,-1.0886692 v -0.041133 z"
         id="path833"
         inkscape:label="#"
         inkscape:connector-curvature="0" />
</svg>
